X: 4
T: Egan's Polka
M: 2/4
L: 1/8
R: polka
K: Gmaj
|: G>A |\
BD ED | BD E/F/E/D/ | G2 A>B | AG ED |
BD ED | BD ED/E/ | G2 A>B | AG :|
|: G>A |\
Bd Bd/B/ | AG ED | G2 A>B | AG EG/A/ |
Bd Bc/B/ | AG E2 | GD/G/ AB | AG :|
&amp;, A-part, bar 2 &amp; 5 ~ | B/c/B/D/ ED | ~
